X:1
T:James Gibb editions
T:James Gibb editions
T:The church has waited long - Barnby
%%score [ ( 1 2 ) ( 3 4 ) ]
L:1/8
Q:1/4=72
M:4/4
K:Eb
V:1 treble nm="Midi_74"
V:2 treble 
V:3 bass nm="Midi_74"
V:4 bass 
V:1
"^The church has waited long""^Joseph Barnby\n(1838-96)" G2 | B2 G2 G2 F2 | E2 c2 B2 E2 | G4 F4 | %4
w: ||||
 E6 || G2 | =A2 G2 ^F2 A2 |[M:4/4] d2 G2 G2 =A2 | B2 G2 G2 ^F2 | G6 || G2 | A2 G2 F2 =E2 | F6 G2 | %13
w: |||||||||
 B2 A2 G2 F2 | G6 || G2 | c2 B2 G2 A2 | B2 G2 E2 F2 | G2 A2"^I" F2 G2 | E2"^1" B2 A2 G2 | %20
w: ||||||* Come then, Lord|
 (F2 C2) D4 | E8 || A4 G4 |] %23
w: Je\- * sus,|come.|A- men.|
V:2
 E2 | F2 E2 D2 D2 | E2 E2 E2 E2 | E4 D4 | E6 || E2 | E2 E2 D2 D2 |[M:4/4] D2 G2 F2 E2 | %8
 D2 D2 D2 D2 | D6 || D2 | D2 D2 D2 ^C2 | D6 E2 | D2 D2 E2 D2 | E6 || E2 | A2 G2 =E2 F2 | %17
 F2 _E2 C2 C2 | E2 C2 D2 D2 | E2 _D2 C2 B,2 | C4 B,4 | B,8 || E4 E4 |] %23
V:3
 B,2 | B,2 B,2 B,2 A,2 | G,2 A,2 G,2 A,2 | B,4 A,4 | G,6 || B,2 | C2 B,2 =A,2 ^F,2 | %7
[M:4/4] G,2 D2 D2 C2 | B,2 B,2 =A,2 C2 | B,6 || B,2 |"^Ped." B,2 B,2 B,2 B,2 | B,6 B,2 | %13
 B,2"^cresc." B,2 B,2 B,2 | B,6 || B,2 | E2 _D2 C2 C2 | B,2 B,2 B,2 A,2 | G,2 F,2 A,2 B,2 | %19
 G,2 G,2 A,2 B,2 | =A,4 _A,4 | G,8 || C4 B,4 |] %23
V:4
 E,2 | D,2 E,2 B,,2 B,,2 | C,2 A,,2 B,,2 C,2 | B,,4 B,,4 | E,6 || E,2 | C,2 C,2 D,2 C,2 | %7
[M:4/4] B,,2 B,,2 C,2 C,2 | D,2 D,2 D,2 D,2 | G,6 || G,2 | F,2 G,2 A,2 G,2 | A,6 G,2 | %13
 F,2 F,2 G,2 A,2 | G,4 E,2- || E,2 | A,,2 B,,2 C,2 F,2 | D,2 E,2 A,,2 A,,2 | B,,2 B,,2 B,,2 B,,2 | %19
 E,6 E,2 | E,4 E,4 | E,8 || A,,4 E,4 |] %23

